assets/images/svg/pizza_24.svg

<svg width="24" height="24" viewBox="0 0 24 24" fill="none" xmlns="http://www.w3.org/2000/svg">
<path d="M12.5 22.5L4.5 5L12.5 2.5L20.5 4L12.5 22.5Z" fill="#FBDB7B"/>
<path d="M3.5 4L4 3L9.5 1.5H15.5L19.5 2.5L21.5 4L21 5L20.5 5.5H19.5L16.5 4.5L14 4H10.5L8.5 4.5L4.5 5.5L3.5 5V4Z" fill="#CE8E5E"/>
<circle cx="10.25" cy="7.25" r="1.25" fill="#D7514A"/>
<circle cx="14.75" cy="9.84961" r="1.25" fill="#D7514A"/>
<circle cx="11.75" cy="14.25" r="1.25" fill="#D7514A"/>
<path d="M12.35 1C10.4754 1 7.93606 1.28161 5.70866 2.08742C5.7033 2.0899 5.69803 2.09256 5.69286 2.09542C5.19524 2.3204 4.55119 2.54121 4.01081 2.86301C3.47043 3.18481 3 3.65072 3 4.32622C3 5.17105 3.68183 5.86141 4.51622 5.86141C4.54588 5.86141 4.57355 5.86297 4.60308 5.86141L12.121 22.8523C12.1413 22.8965 12.1737 22.9338 12.2142 22.9599C12.2548 22.9861 12.3019 23 12.35 23C12.3981 23 12.4452 22.9861 12.4858 22.9599C12.5263 22.9338 12.5587 22.8965 12.579 22.8523L19.4731 7.26865C19.4865 7.23768 19.4939 7.20431 19.4946 7.17047C19.4954 7.13662 19.4896 7.10295 19.4775 7.07139C19.4654 7.03983 19.4472 7.01099 19.4241 6.98652C19.401 6.96205 19.3734 6.94243 19.3428 6.92878C19.3122 6.91513 19.2792 6.90771 19.2458 6.90695C19.2124 6.9062 19.1791 6.91212 19.148 6.92438C19.1168 6.93663 19.0883 6.95498 19.0641 6.97839C19.04 7.00179 19.0206 7.02978 19.0071 7.06076L12.35 22.1247L5.10849 5.75746C5.38833 5.67673 5.652 5.56962 5.88239 5.47761C7.89128 4.69241 10.0695 4.26226 12.35 4.26226C14.6305 4.26226 16.8087 4.69241 18.8176 5.47761C19.2057 5.63259 19.6867 5.86141 20.1838 5.86141C21.0182 5.86141 21.7 5.17105 21.7 4.32622C21.7 3.65072 21.2296 3.18481 20.6892 2.86301C20.1488 2.54121 19.5048 2.3204 19.0071 2.09542C19.002 2.09256 18.9967 2.0899 18.9913 2.08742C16.7639 1.28161 14.2246 1 12.35 1ZM12.35 1.51173C14.1696 1.51173 16.6582 1.78679 18.8018 2.55917C18.807 2.56152 18.8124 2.56481 18.8176 2.56716C19.3448 2.8043 19.9672 3.02329 20.4365 3.30277C20.9105 3.58503 21.1946 3.88495 21.1946 4.32622C21.1946 4.89449 20.745 5.34968 20.1838 5.34968C19.8556 5.34968 19.412 5.15955 19.0071 4.99787C16.9412 4.19037 14.6931 3.75053 12.35 3.75053C10.0069 3.75053 7.75878 4.19037 5.69286 4.99787C5.28803 5.15955 4.84436 5.34968 4.51622 5.34968C3.95497 5.34968 3.50541 4.89449 3.50541 4.32622C3.50541 3.88495 3.78954 3.58503 4.26351 3.30277C4.73282 3.02329 5.35517 2.8043 5.88239 2.56716C5.88763 2.56481 5.89296 2.56153 5.89818 2.55917C8.0418 1.78679 10.5304 1.51173 12.35 1.51173ZM10.3284 5.86141C9.49399 5.86141 8.81216 6.55176 8.81216 7.39659C8.81216 8.24141 9.49399 8.93177 10.3284 8.93177C11.1628 8.93177 11.8446 8.24141 11.8446 7.39659C11.8446 6.55176 11.1628 5.86141 10.3284 5.86141ZM10.3284 6.37313C10.8896 6.37313 11.3392 6.82832 11.3392 7.39659C11.3392 7.96485 10.8896 8.42004 10.3284 8.42004C9.76713 8.42004 9.31757 7.96485 9.31757 7.39659C9.31757 6.82832 9.76713 6.37313 10.3284 6.37313ZM14.6243 8.42004C13.7899 8.42004 13.1081 9.11039 13.1081 9.95522C13.1081 10.8 13.7899 11.4904 14.6243 11.4904C15.4587 11.4904 16.1405 10.8 16.1405 9.95522C16.1405 9.11039 15.4587 8.42004 14.6243 8.42004ZM14.6243 8.93177C15.1856 8.93177 15.6351 9.38695 15.6351 9.95522C15.6351 10.5235 15.1856 10.9787 14.6243 10.9787C14.0631 10.9787 13.6135 10.5235 13.6135 9.95522C13.6135 9.38695 14.0631 8.93177 14.6243 8.93177ZM11.8446 12.7697C11.0102 12.7697 10.3284 13.4601 10.3284 14.3049C10.3284 15.1497 11.0102 15.8401 11.8446 15.8401C12.679 15.8401 13.3608 15.1497 13.3608 14.3049C13.3608 13.4601 12.679 12.7697 11.8446 12.7697ZM11.8446 13.2814C12.4058 13.2814 12.8554 13.7366 12.8554 14.3049C12.8554 14.8732 12.4058 15.3284 11.8446 15.3284C11.2833 15.3284 10.8338 14.8732 10.8338 14.3049C10.8338 13.7366 11.2833 13.2814 11.8446 13.2814Z" fill="black"/>
</svg>

<svg xmlns="http://www.w3.org/2000/svg" width="24" height="24" fill="none">
    <path fill="#FBDB7B" d="M12.5 22.5 4.5 5l8-2.5 8 1.5-8 18.5Z" />
    <path fill="#CE8E5E"
        d="M3.5 4 4 3l5.5-1.5h6l4 1 2 1.5-.5 1-.5.5h-1l-3-1L14 4h-3.5l-2 .5-4 1-1-.5V4Z" />
    <circle cx="10.25" cy="7.25" r="1.25" fill="#D7514A" />
    <circle cx="14.75" cy="9.85" r="1.25" fill="#D7514A" />
    <circle cx="11.75" cy="14.25" r="1.25" fill="#D7514A" />
    <path fill="#000"
        d="M12.35 1a20.53 20.53 0 0 0-6.66 1.1c-.5.22-1.14.44-1.68.76S3 3.66 3 4.33c0 .84.68 1.53 1.52 1.53h.08l7.52 17a.25.25 0 0 0 .23.14.25.25 0 0 0 .23-.15l6.9-15.58a.26.26 0 0 0-.14-.34.25.25 0 0 0-.33.13l-6.66 15.06L5.11 5.76c.28-.08.54-.19.77-.28a17.72 17.72 0 0 1 12.94 0c.39.15.87.38 1.36.38.84 0 1.52-.69 1.52-1.53 0-.68-.47-1.15-1.01-1.47-.54-.32-1.19-.54-1.68-.76l-.02-.01A20.53 20.53 0 0 0 12.35 1Zm0 .51c1.82 0 4.3.28 6.45 1.05h.02c.52.24 1.15.46 1.62.74.47.29.75.58.75 1.03 0 .56-.45 1.02-1 1.02-.33 0-.78-.19-1.18-.35A18.26 18.26 0 0 0 5.69 5c-.4.16-.85.35-1.17.35-.57 0-1.01-.46-1.01-1.02 0-.45.28-.74.75-1.03.47-.28 1.1-.5 1.62-.73l.02-.01a20.13 20.13 0 0 1 6.45-1.05Zm-2.02 4.35c-.84 0-1.52.7-1.52 1.54 0 .84.68 1.53 1.52 1.53.83 0 1.51-.69 1.51-1.53 0-.85-.68-1.54-1.51-1.54Zm0 .51c.56 0 1 .46 1 1.03 0 .56-.44 1.02-1 1.02S9.32 7.96 9.32 7.4c0-.57.45-1.03 1-1.03Zm4.3 2.05c-.84 0-1.52.69-1.52 1.54 0 .84.68 1.53 1.51 1.53a1.53 1.53 0 0 0 0-3.07Zm0 .51c.56 0 1 .46 1 1.03 0 .56-.44 1.02-1 1.02-.57 0-1.02-.46-1.02-1.02 0-.57.45-1.03 1.01-1.03Zm-2.79 3.84c-.83 0-1.51.69-1.51 1.53 0 .85.68 1.54 1.51 1.54.84 0 1.52-.69 1.52-1.54 0-.84-.68-1.53-1.52-1.53Zm0 .51c.57 0 1.02.46 1.02 1.02a1.01 1.01 0 1 1-2.02 0c0-.56.44-1.02 1-1.02Z" />
</svg>
